X:3781
L:1/8
Q:3/8=110
M:6/8
K:G
|:"^A" D | G2 G GBd | edc B2 A | G2 G GBd | ecA A2 B | G2 G GBd | edc B2 d | c2 a A2 f | g2 G G2 :: 
"^B" d | g2 d g2 d | gfe dBd | e2 e dcB | Aag fed | c2 e a2 a | fdf g2 d | dcB A2 a | f2 d d2 :|

